resources/vendors/sberbank/logo-1504773918.svg

<?xml version="1.0" encoding="UTF-8"?>
<!DOCTYPE svg  PUBLIC '-//W3C//DTD SVG 1.1//EN'  'http://www.w3.org/Graphics/SVG/1.1/DTD/svg11.dtd'>
<svg enable-background="new 0 0 1574.53 354.232" version="1.1" viewBox="0 0 1574.5 354.23" xml:space="preserve" xmlns="http://www.w3.org/2000/svg" xmlns:xlink="http://www.w3.org/1999/xlink">

	<defs>
		<rect id="b" width="1574.5" height="354.23"/>
	</defs>
	<clipPath id="a">
		<use overflow="visible" xlink:href="#b"/>
	</clipPath>
	<path d="m500.83 176.93c0-52.159 30.278-86.072 84.539-86.072 24.324 0 38.826 4.679 49.117 9.59l-7.25 19.178c-13.098-4.21-22.687-7.252-41.397-7.252-33.215-0.229-59.28 18.011-59.28 62.218 0 45.141 27.002 64.785 63.722 64.785 15.671 0 27.598-2.339 38.591-5.849l5.849 19.649c-12.397 4.68-25.495 8.186-48.415 8.186-56.367 1e-3 -85.476-33.678-85.476-84.433" clip-path="url(#a)" fill="#299D30"/>
	<path d="m650.92 187.22c0-26.192 4.91-67.357 19.646-81.158 12.864-12.162 47.245-20.348 87.242-27.83l3.975 21.981c-35.551 6.083-67.127 11.697-74.844 19.18-6.783 6.548-9.824 21.517-11.228 32.745 10.759-5.845 25.495-11.459 43.503-11.459 30.64 0 50.054 15.199 50.054 54.027 0 45.606-26.429 65.954-61.747 65.954-35.084 0-56.601-21.981-56.601-73.44m93.789 8.42c0-20.348-8.653-36.016-31.808-36.016-14.736 0-26.431 5.145-37.892 10.994-0.232 4.21-0.467 10.289-0.467 14.499 0 38.124 11.461 55.9 34.85 55.9 27.598 0 35.317-23.391 35.317-45.377" clip-path="url(#a)" fill="#299D30"/>
	<path d="m789.34 197.04c0-50.52 25.728-69.464 57.768-69.464 35.786 0 50.756 22.689 50.756 64.32v8.655h-83.968c0.235 33.679 19.412 40.462 41.867 40.462 12.162 0 22.456-1.873 35.083-5.614l4.21 18.944c-11.223 4.211-26.432 7.018-43.038 7.018-38.123 0-62.678-14.969-62.678-64.321m83.265-13.565c0-22.686-8.187-37.42-26.896-37.42-16.842 0-29.473 12.397-31.111 37.42h58.007z" clip-path="url(#a)" fill="#299D30"/>
	<path d="m922.49 130.85h24.324v10.055c10.992-7.717 21.047-13.096 36.72-13.096 30.173 0 50.755 21.052 50.755 63.616 0 52.159-30.876 69.7-65.254 69.7-7.952 0-16.607-1.17-22.221-1.873v50.753h-24.324v-179.16zm87.006 61.744c0-23.155-8.187-43.968-32.744-43.968-13.331 0-23.39 6.079-29.938 9.589v80.924c3.041 0.469 13.096 2.342 21.751 2.342 29.234 0 40.931-20.353 40.931-48.887" clip-path="url(#a)" fill="#299D30"/>
	<path d="m1055.4 187.22c0-26.192 4.91-67.357 19.645-81.158 12.866-12.162 47.249-20.348 87.241-27.83l3.979 21.981c-35.551 6.083-67.132 11.697-74.849 19.18-6.778 6.548-9.819 21.517-11.228 32.745 10.758-5.845 25.497-11.459 43.503-11.459 30.643 0 50.056 15.199 50.056 54.027 0 45.606-26.426 65.954-61.748 65.954-35.081 0-56.599-21.981-56.599-73.44m93.789 8.42c0-20.348-8.655-36.016-31.806-36.016-14.739 0-26.437 5.145-37.894 10.994-0.23 4.21-0.465 10.289-0.465 14.499 0 38.124 11.458 55.9 34.848 55.9 27.601 0 35.317-23.391 35.317-45.377" clip-path="url(#a)" fill="#299D30"/>
	<path d="m1189.5 224.17c0-32.276 28.535-38.825 50.757-39.059l27.83-0.47v-13.8c0-17.541-8.887-22.216-27.596-22.216-13.565 0-24.794 2.337-35.787 6.079l-5.144-18.476c11.927-4.915 26.191-8.655 44.901-8.655 30.642 0 47.483 10.758 47.483 36.72v66.658c0 7.952 6.778 9.59 13.331 9.824l-1.939 18.71c-1.633 0.233-3.205 0.47-4.844 0.47-13.101 0-25.962-3.976-28.3-15.439-7.951 6.084-21.052 16.139-41.399 16.139-23.62 1e-3 -39.293-12.861-39.293-36.485m78.587 5.614v-29.469l-27.132 1.17c-17.541 0.469-27.595 7.95-27.595 21.047 0 12.866 9.35 18.715 21.751 18.715 11.459 0 23.855-5.615 32.976-11.463" clip-path="url(#a)" fill="#299D30"/>
	<polygon points="1326.1 130.85 1350.7 130.85 1350.7 184.88 1410.8 184.88 1410.8 130.85 1435.4 130.85 1435.4 258.55 1410.8 258.55 1410.8 204.29 1350.7 204.29 1350.7 258.55 1326.1 258.55" clip-path="url(#a)" fill="#299D30"/>
	<path d="m1465.5 130.85h24.56v127.7h-24.56v-127.7zm61.815 105.72-36.316-43.504 50.816-62.213h27.6l-51.991 60.341 25.325 28.068c11.228 12.862 21.521 20.349 31.811 23.156l-4.211 18.24c-11.927-0.698-26.197-3.506-43.034-24.088" clip-path="url(#a)" fill="#299D30"/>
	<path d="m368.66 169.93c0 101.77-82.521 184.3-184.33 184.3-101.8 0-184.33-82.534-184.33-184.3 0-4.154 0.171-8.249 0.431-12.309l111.6 64.196 236.39-135.98c12.936 25.212 20.239 53.787 20.239 84.09m-256.63 5.5-103.9-59.754c-2.038 6.624-3.702 13.389-4.987 20.324l108.89 62.626 226.24-130.12c-3.735-5.626-7.75-11.064-12.057-16.268l-214.18 123.19zm200.15-138.28c-5.126-4.933-10.534-9.574-16.184-13.884l-183.96 105.8-87.817-50.517c-3.314 5.806-6.327 11.811-9.016 18.018l96.833 55.666 200.15-115.08zm-200.15 68.735 165.36-95.087c-6.914-4.046-14.093-7.657-21.542-10.795l-143.81 82.702-64.036-36.832c-4.569 5.01-8.848 10.308-12.849 15.788l76.885 44.224z" clip-path="url(#a)" fill="#299D30"/>

</svg>

<?xml version="1.0" encoding="utf-8"?>
<!-- Generator: Adobe Illustrator 16.0.0, SVG Export Plug-In . SVG Version: 6.00 Build 0)  -->
<!DOCTYPE svg PUBLIC "-//W3C//DTD SVG 1.1//EN" "http://www.w3.org/Graphics/SVG/1.1/DTD/svg11.dtd">
<svg version="1.1" id="Layer_1" xmlns="http://www.w3.org/2000/svg" xmlns:xlink="http://www.w3.org/1999/xlink" x="0px" y="0px"
	 width="1574.53px" height="354.232px" viewBox="0 0 1574.53 354.232" enable-background="new 0 0 1574.53 354.232"
	 xml:space="preserve">
<g>
	<defs>
		<rect id="SVGID_1_" width="1574.528" height="354.232"/>
	</defs>
	<clipPath id="SVGID_2_">
		<use xlink:href="#SVGID_1_"  overflow="visible"/>
	</clipPath>
	<path clip-path="url(#SVGID_2_)" fill="#299D30" d="M500.827,176.926c0-52.159,30.278-86.072,84.539-86.072
		c24.324,0,38.826,4.679,49.117,9.59l-7.25,19.178c-13.098-4.21-22.687-7.252-41.397-7.252c-33.215-0.229-59.28,18.011-59.28,62.218
		c0,45.141,27.002,64.785,63.722,64.785c15.671,0,27.598-2.339,38.591-5.849l5.849,19.649c-12.397,4.68-25.495,8.186-48.415,8.186
		C529.936,261.36,500.827,227.681,500.827,176.926"/>
	<path clip-path="url(#SVGID_2_)" fill="#299D30" d="M650.919,187.215c0-26.192,4.91-67.357,19.646-81.158
		c12.864-12.162,47.245-20.348,87.242-27.83l3.975,21.981c-35.551,6.083-67.127,11.697-74.844,19.18
		c-6.783,6.548-9.824,21.517-11.228,32.745c10.759-5.845,25.495-11.459,43.503-11.459c30.64,0,50.054,15.199,50.054,54.027
		c0,45.606-26.429,65.954-61.747,65.954C672.436,260.655,650.919,238.674,650.919,187.215 M744.708,195.635
		c0-20.348-8.653-36.016-31.808-36.016c-14.736,0-26.431,5.145-37.892,10.994c-0.232,4.21-0.467,10.289-0.467,14.499
		c0,38.124,11.461,55.9,34.85,55.9C736.989,241.012,744.708,217.621,744.708,195.635"/>
	<path clip-path="url(#SVGID_2_)" fill="#299D30" d="M789.341,197.039c0-50.52,25.728-69.464,57.768-69.464
		c35.786,0,50.756,22.689,50.756,64.32v8.655h-83.968c0.235,33.679,19.412,40.462,41.867,40.462c12.162,0,22.456-1.873,35.083-5.614
		l4.21,18.944c-11.223,4.211-26.432,7.018-43.038,7.018C813.896,261.36,789.341,246.391,789.341,197.039 M872.606,183.474
		c0-22.686-8.187-37.42-26.896-37.42c-16.842,0-29.473,12.397-31.111,37.42H872.606z"/>
	<path clip-path="url(#SVGID_2_)" fill="#299D30" d="M922.488,130.85h24.324v10.055c10.992-7.717,21.047-13.096,36.72-13.096
		c30.173,0,50.755,21.052,50.755,63.616c0,52.159-30.876,69.7-65.254,69.7c-7.952,0-16.607-1.17-22.221-1.873v50.753h-24.324V130.85
		z M1009.494,192.594c0-23.155-8.187-43.968-32.744-43.968c-13.331,0-23.39,6.079-29.938,9.589v80.924
		c3.041,0.469,13.096,2.342,21.751,2.342C997.797,241.481,1009.494,221.128,1009.494,192.594"/>
	<path clip-path="url(#SVGID_2_)" fill="#299D30" d="M1055.4,187.215c0-26.192,4.91-67.357,19.645-81.158
		c12.866-12.162,47.249-20.348,87.241-27.83l3.979,21.981c-35.551,6.083-67.132,11.697-74.849,19.18
		c-6.778,6.548-9.819,21.517-11.228,32.745c10.758-5.845,25.497-11.459,43.503-11.459c30.643,0,50.056,15.199,50.056,54.027
		c0,45.606-26.426,65.954-61.748,65.954C1076.918,260.655,1055.4,238.674,1055.4,187.215 M1149.189,195.635
		c0-20.348-8.655-36.016-31.806-36.016c-14.739,0-26.437,5.145-37.894,10.994c-0.23,4.21-0.465,10.289-0.465,14.499
		c0,38.124,11.458,55.9,34.848,55.9C1141.473,241.012,1149.189,217.621,1149.189,195.635"/>
	<path clip-path="url(#SVGID_2_)" fill="#299D30" d="M1189.481,224.17c0-32.276,28.535-38.825,50.757-39.059l27.83-0.47v-13.8
		c0-17.541-8.887-22.216-27.596-22.216c-13.565,0-24.794,2.337-35.787,6.079l-5.144-18.476c11.927-4.915,26.191-8.655,44.901-8.655
		c30.642,0,47.483,10.758,47.483,36.72v66.658c0,7.952,6.778,9.59,13.331,9.824l-1.939,18.71c-1.633,0.233-3.205,0.47-4.844,0.47
		c-13.101,0-25.962-3.976-28.3-15.439c-7.951,6.084-21.052,16.139-41.399,16.139C1205.154,260.656,1189.481,247.794,1189.481,224.17
		 M1268.068,229.784v-29.469l-27.132,1.17c-17.541,0.469-27.595,7.95-27.595,21.047c0,12.866,9.35,18.715,21.751,18.715
		C1246.551,241.247,1258.947,235.632,1268.068,229.784"/>
	<polygon clip-path="url(#SVGID_2_)" fill="#299D30" points="1326.141,130.85 1350.695,130.85 1350.695,184.876 1410.805,184.876 
		1410.805,130.85 1435.363,130.85 1435.363,258.553 1410.805,258.553 1410.805,204.291 1350.695,204.291 1350.695,258.553 
		1326.141,258.553 	"/>
	<path clip-path="url(#SVGID_2_)" fill="#299D30" d="M1465.469,130.85h24.56v127.703h-24.56V130.85z M1527.284,236.567
		l-36.316-43.504l50.816-62.213h27.6l-51.991,60.341l25.325,28.068c11.228,12.862,21.521,20.349,31.811,23.156l-4.211,18.24
		C1558.391,259.957,1544.121,257.149,1527.284,236.567"/>
	<path clip-path="url(#SVGID_2_)" fill="#299D30" d="M368.66,169.93c0,101.768-82.521,184.302-184.329,184.302
		C82.535,354.232,0,271.698,0,169.93c0-4.154,0.171-8.249,0.431-12.309l111.6,64.196L348.421,85.84
		C361.357,111.052,368.66,139.627,368.66,169.93 M112.031,175.43L8.129,115.676C6.091,122.3,4.427,129.065,3.142,136l108.889,62.626
		L338.273,68.504c-3.735-5.626-7.75-11.064-12.057-16.268L112.031,175.43z M312.18,37.147c-5.126-4.933-10.534-9.574-16.184-13.884
		L112.031,129.065L24.214,78.548c-3.314,5.806-6.327,11.811-9.016,18.018l96.833,55.666L312.18,37.147z M112.031,105.882
		l165.355-95.087C270.472,6.749,263.293,3.138,255.844,0L112.031,82.702L47.995,45.87c-4.569,5.01-8.848,10.308-12.849,15.788
		L112.031,105.882z"/>
</g>
</svg>
